X:185
T:I Have A Wife Of My Own,aka. HA.184
T:Untitled. HA.184
M:9/4
L:1/4
Q:3/4=120
C:Untitled in MS
S:Henry Atkinson’s original MS,Hartburn,N’umberland,1694.
O:England
A:Hartburn,Northumberland
N:Tempo could be anything between an air and a jig (or slipjg)
N:Metre is 9/8 rather than 3/4 NBr
H:1/4
Z:vmp.Neil Brookes, Jan.2004
K:F
“_re-barred from 3/4 in MS”G3/2A/2G B2g f2d|G3/2A/2G B2d cAF|
G3/2A/2G B2g f2d|f2c cAf cAF||
f2d dgd dgd|f2d dfd cAF|
f2d dgd Bfd|f2c cAf cAF|]

